src/apps/scalable/accessories-document-viewer.svg

<?xml version="1.0" encoding="UTF-8"?>
<svg width="64" height="64" version="1.1" viewBox="0 0 64 64" xmlns="http://www.w3.org/2000/svg" xmlns:xlink="http://www.w3.org/1999/xlink">
 <defs>
  <filter id="b" x="-.042857" y="-.042857" width="1.0857" height="1.1036">
   <feOffset dy="1" in="SourceAlpha" result="shadowOffsetOuter1"/>
   <feGaussianBlur in="shadowOffsetOuter1" result="shadowBlurOuter1" stdDeviation="1"/>
   <feColorMatrix in="shadowBlurOuter1" values="0 0 0 0 0 0 0 0 0 0 0 0 0 0 0 0 0 0 0.24 0"/>
  </filter>
  <filter id="e" x="-.096618" y="-.099681" width="1.1932" height="1.2547">
   <feOffset dy="2" in="SourceAlpha" result="shadowOffsetOuter1"/>
   <feGaussianBlur in="shadowOffsetOuter1" result="shadowBlurOuter1" stdDeviation="1.5"/>
   <feColorMatrix in="shadowBlurOuter1" values="0 0 0 0 0 0 0 0 0 0 0 0 0 0 0 0 0 0 0.2 0"/>
  </filter>
  <rect id="a" x="4" y="4" width="56" height="56" rx="13"/>
  <path id="d" d="m50.2 36.9c-1.2-1.3-3.5-1.9-6.8-1.9-1.8 0-3.7 0.2-5.5 0.5-1.2-1.1-2.2-2.4-3.2-3.7-0.7-1-1.4-2-2-3.1 1-2.8 1.6-5.8 1.8-8.8 0-2.7-1.1-5.6-4.1-5.6-1 0-2 0.6-2.5 1.5-1.3 2.2-0.8 6.7 1.3 11.4-0.7 2.1-1.5 4.2-2.4 6.5-0.8 2-1.7 3.9-2.8 5.7-3.1 1.2-9.6 4.2-10.2 7.5-0.2 1 0.1 2 0.9 2.6 0.7 0.6 1.7 1 2.7 0.9 3.9 0 7.8-5.4 10.5-10.1 1.5-0.5 3-1 4.6-1.4 1.7-0.4 3.3-0.8 4.8-1.1 4.2 3.6 7.9 4.2 9.7 4.2 2.5 0 3.5-1.1 3.8-2 0.4-1.1 0.2-2.3-0.6-3.1zm-2.7 1.9c-0.1 0.7-0.9 1.2-1.9 1.2-0.3 0-0.6 0-0.9-0.1-2-0.5-3.9-1.5-5.5-2.8 1.3-0.2 2.7-0.3 4-0.3 0.9 0 1.8 0.1 2.7 0.2 0.9 0.2 1.9 0.6 1.6 1.8zm-17.9-22.1c0.2-0.3 0.5-0.5 0.9-0.6 1 0 1.2 1.1 1.2 2.1-0.1 2.3-0.5 4.5-1.2 6.7-1.7-4.3-1.5-7.2-0.9-8.2zm5.6 19.2c-1.1 0.2-2.2 0.5-3.3 0.8-0.8 0.2-1.6 0.5-2.5 0.7 0.4-0.9 0.8-1.8 1.2-2.6 0.5-1.1 0.9-2.2 1.3-3.3 0.4 0.6 0.7 1.1 1.1 1.6 0.7 1 1.5 1.9 2.2 2.8zm-12.1 5.8c-2.5 4-5 6.6-6.4 6.6-0.2 0-0.5-0.1-0.6-0.2-0.3-0.2-0.4-0.6-0.3-0.9 0.2-1.5 3.1-3.6 7.3-5.5z"/>
  <linearGradient id="linearGradient991" x1="4" x2="8" y1="31.97" y2="31.97" gradientTransform="scale(1)" gradientUnits="userSpaceOnUse">
   <stop stop-color="#1e170b" stop-opacity=".45" offset="0"/>
   <stop stop-opacity=".15" offset=".48612"/>
   <stop stop-opacity=".35" offset="1"/>
  </linearGradient>
  <linearGradient id="linearGradient889" x1="8.1105" x2="8.1105" y1="14.648" y2="2.624" gradientTransform="scale(3.7796)" gradientUnits="userSpaceOnUse">
   <stop stop-color="#ce1921" offset="0"/>
   <stop stop-color="#f44" offset="1"/>
  </linearGradient>
  <linearGradient id="linearGradient1011" x1="31.611" x2="31.611" y1="48.525" y2="16.722" gradientUnits="userSpaceOnUse">
   <stop stop-color="#f6c1c4" offset="0"/>
   <stop stop-color="#fff" offset="1"/>
  </linearGradient>
 </defs>
 <use width="100%" height="100%" fill="#000000" filter="url(#b)" xlink:href="#a"/>
 <rect x="4" y="3.9686" width="56.002" height="56.002" rx="13.002" ry="13.002" fill="url(#linearGradient889)" stroke-width="3.7796"/>
 <path d="m17.002 3.9688c-7.2033 0-13.002 5.7987-13.002 13.002v1.0312c0-7.2033 5.7987-13.002 13.002-13.002h29.998c7.2033 0 13.002 5.7987 13.002 13.002v-1.0312c0-7.2033-5.7987-13.002-13.002-13.002z" fill="#fff" opacity=".25" stroke-width="3.7796"/>
 <path d="m17.002 60.001c-7.2032 0-13.002-5.7987-13.002-13.002v-1.0313c0 7.2032 5.7987 13.002 13.002 13.002h29.998c7.2032 0 13.002-5.7987 13.002-13.002v1.0313c0 7.2032-5.7987 13.002-13.002 13.002z" opacity=".25" stroke-width="3.7796"/>
 <rect width="64" height="64" fill="none"/>
 <use width="100%" height="100%" fill="#000000" filter="url(#e)" opacity=".35" xlink:href="#d"/>
 <use width="100%" height="100%" fill="url(#linearGradient1011)" xlink:href="#d"/>
 <path d="m8.0001 7.586c-2.4633 2.3633-4 5.6857-4 9.3849v29.998c0 3.699 1.5367 7.0216 4 9.3849v-48.768z" fill="url(#linearGradient991)" opacity=".5"/>
</svg>

<svg xmlns="http://www.w3.org/2000/svg" xmlns:xlink="http://www.w3.org/1999/xlink" width="64" height="64" viewBox="0 0 64 64">
   <defs>
      <filter id="b" width="112.5%" height="112.5%" x="-6.2%" y="-4.5%" filterUnits="objectBoundingBox">
         <feOffset dy="1" in="SourceAlpha" result="shadowOffsetOuter1"/>
         <feGaussianBlur in="shadowOffsetOuter1" result="shadowBlurOuter1" stdDeviation="1"/>
         <feColorMatrix in="shadowBlurOuter1" values="0 0 0 0 0 0 0 0 0 0 0 0 0 0 0 0 0 0 0.24 0"/>
      </filter>
      <filter id="e" width="129.5%" height="130.5%" x="-14.8%" y="-9.7%" filterUnits="objectBoundingBox">
         <feOffset dy="2" in="SourceAlpha" result="shadowOffsetOuter1"/>
         <feGaussianBlur in="shadowOffsetOuter1" result="shadowBlurOuter1" stdDeviation="1.5"/>
         <feColorMatrix in="shadowBlurOuter1" values="0 0 0 0 0 0 0 0 0 0 0 0 0 0 0 0 0 0 0.2 0"/>
      </filter>
      <linearGradient id="c" x1="46.427%" x2="46.427%" y1="94.696%" y2="5.413%">
         <stop offset="0%" stop-color="#B30B00"/>
         <stop offset="100%" stop-color="#DC0E00"/>
      </linearGradient>
      <rect id="a" width="56" height="56" x="4" y="4" rx="13"/>
      <path id="d" d="M50.2,36.9 C49,35.6 46.7,35 43.4,35 C41.6,35 39.7,35.2 37.9,35.5 C36.7,34.4 35.7,33.1 34.7,31.8 C34,30.8 33.3,29.8 32.7,28.7 C33.7,25.9 34.3,22.9 34.5,19.9 C34.5,17.2 33.4,14.3 30.4,14.3 C29.4,14.3 28.4,14.9 27.9,15.8 C26.6,18 27.1,22.5 29.2,27.2 C28.5,29.3 27.7,31.4 26.8,33.7 C26,35.7 25.1,37.6 24,39.4 C20.9,40.6 14.4,43.6 13.8,46.9 C13.6,47.9 13.9,48.9 14.7,49.5 C15.4,50.1 16.4,50.5 17.4,50.4 C21.3,50.4 25.2,45 27.9,40.3 C29.4,39.8 30.9,39.3 32.5,38.9 C34.2,38.5 35.8,38.1 37.3,37.8 C41.5,41.4 45.2,42 47,42 C49.5,42 50.5,40.9 50.8,40 C51.2,38.9 51,37.7 50.2,36.9 L50.2,36.9 Z M47.5,38.8 C47.4,39.5 46.6,40 45.6,40 C45.3,40 45,40 44.7,39.9 C42.7,39.4 40.8,38.4 39.2,37.1 C40.5,36.9 41.9,36.8 43.2,36.8 C44.1,36.8 45,36.9 45.9,37 C46.8,37.2 47.8,37.6 47.5,38.8 L47.5,38.8 Z M29.6,16.7 C29.8,16.4 30.1,16.2 30.5,16.1 C31.5,16.1 31.7,17.2 31.7,18.2 C31.6,20.5 31.2,22.7 30.5,24.9 C28.8,20.6 29,17.7 29.6,16.7 Z M35.2,35.9 C34.1,36.1 33,36.4 31.9,36.7 C31.1,36.9 30.3,37.2 29.4,37.4 C29.8,36.5 30.2,35.6 30.6,34.8 C31.1,33.7 31.5,32.6 31.9,31.5 C32.3,32.1 32.6,32.6 33,33.1 C33.7,34.1 34.5,35 35.2,35.9 Z M23.1,41.7 C20.6,45.7 18.1,48.3 16.7,48.3 C16.5,48.3 16.2,48.2 16.1,48.1 C15.8,47.9 15.7,47.5 15.8,47.2 C16,45.7 18.9,43.6 23.1,41.7 Z"/>
   </defs>
   <g fill="none" fill-rule="evenodd">
      <rect width="64" height="64"/>
      <g fill-rule="nonzero">
         <use xlink:href="#a" fill="#000" filter="url(#b)"/>
         <use xlink:href="#a" fill="url(#c)"/>
      </g>
      <g fill-rule="nonzero">
         <use xlink:href="#d" fill="#000" filter="url(#e)"/>
         <use xlink:href="#d" fill="#FFF"/>
      </g>
   </g>
</svg>
